public/logos/MK.svg

<?xml version="1.0" encoding="UTF-8"?>
<svg xmlns="http://www.w3.org/2000/svg" xmlns:xlink="http://www.w3.org/1999/xlink" width="176pt" height="38.97pt" viewBox="0 0 176 38.97" version="1.1">
<defs>
<clipPath id="clip1">
  <path d="M 0 26 L 16 26 L 16 38.96875 L 0 38.96875 Z M 0 26 "/>
</clipPath>
<clipPath id="clip2">
  <path d="M 16 26 L 23 26 L 23 38.96875 L 16 38.96875 Z M 16 26 "/>
</clipPath>
<clipPath id="clip3">
  <path d="M 23 26 L 40 26 L 40 38.96875 L 23 38.96875 Z M 23 26 "/>
</clipPath>
<clipPath id="clip4">
  <path d="M 48 26 L 69 26 L 69 38.96875 L 48 38.96875 Z M 48 26 "/>
</clipPath>
<clipPath id="clip5">
  <path d="M 69 26 L 85 26 L 85 38.96875 L 69 38.96875 Z M 69 26 "/>
</clipPath>
<clipPath id="clip6">
  <path d="M 102 26 L 120 26 L 120 38.96875 L 102 38.96875 Z M 102 26 "/>
</clipPath>
<clipPath id="clip7">
  <path d="M 119 26 L 126 26 L 126 38.96875 L 119 38.96875 Z M 119 26 "/>
</clipPath>
<clipPath id="clip8">
  <path d="M 139 26 L 145 26 L 145 38.96875 L 139 38.96875 Z M 139 26 "/>
</clipPath>
<clipPath id="clip9">
  <path d="M 86 26 L 102 26 L 102 38.96875 L 86 38.96875 Z M 86 26 "/>
</clipPath>
<clipPath id="clip10">
  <path d="M 126 26 L 140 26 L 140 38.96875 L 126 38.96875 Z M 126 26 "/>
</clipPath>
<clipPath id="clip11">
  <path d="M 145 26 L 162 26 L 162 38.96875 L 145 38.96875 Z M 145 26 "/>
</clipPath>
<clipPath id="clip12">
  <path d="M 162 26 L 176 26 L 176 38.96875 L 162 38.96875 Z M 162 26 "/>
</clipPath>
</defs>
<g id="surface1">
<path style=" stroke:none;fill-rule:evenodd;fill:rgb(76.850891%,11.805725%,14.44397%);fill-opacity:1;" d="M 107.824219 16.339844 C 110.230469 16.011719 115.214844 15.761719 118.285156 16.339844 C 121.359375 16.921875 127.253906 18.667969 137.722656 14.183594 C 139.964844 13.355469 147.605469 11.859375 149.597656 15.429688 C 149.433594 14.433594 148.933594 11.941406 141.875 9.039062 C 139.21875 8.042969 136.890625 8.207031 134.484375 8.371094 C 132.074219 8.539062 121.859375 9.121094 115.046875 5.550781 C 108.308594 2.019531 100.996094 -2.160156 90.699219 1.296875 C 92.890625 0.777344 99.601562 2.714844 100.925781 3.476562 C 102.222656 4.222656 113.550781 11.03125 116.957031 11.03125 C 115.792969 12.023438 108.816406 13.851562 104.332031 14.265625 C 99.847656 14.679688 85.8125 16.921875 68.449219 16.589844 C 76.644531 17.820312 93.949219 18.417969 107.824219 16.339844 "/>
<path style=" stroke:none;fill-rule:evenodd;fill:rgb(76.850891%,11.805725%,14.44397%);fill-opacity:1;" d="M 90.699219 1.296875 C 90.578125 1.324219 90.46875 1.355469 90.378906 1.402344 C 90.488281 1.363281 90.59375 1.332031 90.699219 1.296875 "/>
<path style=" stroke:none;fill-rule:evenodd;fill:rgb(76.850891%,11.805725%,14.44397%);fill-opacity:1;" d="M 140.964844 7.664062 C 142.875 6.851562 152.511719 1.777344 159.429688 5.164062 C 156.632812 3.617188 151.632812 0.0117188 141.257812 2.953125 C 136.257812 4.574219 130.960938 6.707031 130.738281 7.296875 C 130.738281 7.296875 137.582031 6.558594 140.964844 7.664062 "/>
<g clip-path="url(#clip1)" clip-rule="nonzero">
<path style=" stroke:none;fill-rule:evenodd;fill:rgb(76.850891%,11.805725%,14.44397%);fill-opacity:1;" d="M 10.917969 36.789062 C 10.917969 36.789062 5.304688 36.789062 4.527344 36.738281 C 3.75 36.6875 2.863281 36.425781 2.863281 35.488281 C 2.863281 34.554688 4.578125 33.984375 5.980469 33.828125 C 7.382812 33.671875 11.28125 33.359375 11.644531 33.152344 Z M 12.527344 26.710938 C 11.542969 26.710938 3.4375 26.859375 3.4375 26.859375 L 3.070312 28.945312 C 3.070312 28.945312 9.046875 28.683594 11.019531 28.738281 C 12.996094 28.789062 12.164062 30.761719 12.058594 31.179688 C 11.386719 31.4375 4.320312 32.113281 3.4375 32.269531 C 2.554688 32.425781 -0.148438 33.257812 0.0078125 35.90625 C 0.160156 38.554688 3.789062 38.929688 4.253906 38.929688 C 4.722656 38.929688 13.78125 38.921875 13.78125 38.921875 C 13.78125 38.921875 15.226562 31.644531 15.75 29.046875 C 16.269531 26.453125 13.515625 26.710938 12.527344 26.710938 "/>
</g>
<g clip-path="url(#clip2)" clip-rule="nonzero">
<path style=" stroke:none;fill-rule:evenodd;fill:rgb(76.850891%,11.805725%,14.44397%);fill-opacity:1;" d="M 16.683594 38.929688 L 19.90625 38.929688 L 22.347656 26.867188 L 19.28125 26.867188 L 16.683594 38.929688 "/>
</g>
<g clip-path="url(#clip3)" clip-rule="nonzero">
<path style=" stroke:none;fill-rule:evenodd;fill:rgb(76.850891%,11.805725%,14.44397%);fill-opacity:1;" d="M 36.21875 31.488281 C 35.074219 32.011719 27.855469 32.839844 27.855469 32.839844 L 28.683594 28.789062 C 28.683594 28.789062 34.191406 28.6875 35.75 28.789062 C 37.308594 28.894531 37.359375 30.972656 36.21875 31.488281 Z M 39.75 29.828125 C 39.75 26.503906 34.191406 26.859375 33.984375 26.859375 C 33.777344 26.859375 25.722656 26.859375 25.722656 26.859375 L 23.066406 38.929688 L 26.5 38.929688 L 27.492188 34.867188 L 31.75 34.503906 L 34.992188 38.929688 L 38.367188 38.929688 L 35.179688 34.035156 C 35.179688 34.035156 39.492188 33.722656 39.75 29.828125 "/>
</g>
<g clip-path="url(#clip4)" clip-rule="nonzero">
<path style=" stroke:none;fill-rule:evenodd;fill:rgb(76.850891%,11.805725%,14.44397%);fill-opacity:1;" d="M 67.253906 26.859375 L 51.179688 26.859375 L 48.671875 38.929688 L 51.910156 38.929688 L 54.003906 28.789062 C 54.003906 28.789062 55.683594 28.789062 56.933594 28.789062 C 58.183594 28.789062 58.132812 29.363281 58.09375 29.730469 C 58.058594 30.097656 56.269531 38.929688 56.269531 38.929688 L 59.359375 38.929688 L 61.417969 28.789062 C 61.417969 28.789062 63.746094 28.789062 64.375 28.789062 C 65 28.789062 65.523438 29.03125 65.414062 29.546875 C 65.304688 30.0625 63.351562 38.929688 63.351562 38.929688 L 66.589844 38.929688 C 66.589844 38.929688 68.726562 29.914062 68.726562 28.261719 C 68.726562 26.605469 67.253906 26.859375 67.253906 26.859375 "/>
</g>
<g clip-path="url(#clip5)" clip-rule="nonzero">
<path style=" stroke:none;fill-rule:evenodd;fill:rgb(76.850891%,11.805725%,14.44397%);fill-opacity:1;" d="M 79.917969 36.789062 C 79.917969 36.789062 74.308594 36.789062 73.53125 36.738281 C 72.75 36.6875 71.867188 36.425781 71.867188 35.488281 C 71.867188 34.554688 73.582031 33.984375 74.984375 33.828125 C 76.386719 33.671875 80.28125 33.359375 80.644531 33.152344 Z M 81.53125 26.75 C 80.542969 26.75 72.4375 26.859375 72.4375 26.859375 L 72.074219 28.945312 C 72.074219 28.945312 78.050781 28.683594 80.023438 28.738281 C 81.996094 28.789062 81.167969 30.761719 81.0625 31.179688 C 80.386719 31.4375 73.324219 32.113281 72.4375 32.269531 C 71.554688 32.425781 69.011719 33.25 69.011719 35.90625 C 69.011719 38.550781 72.90625 38.929688 73.375 38.929688 C 73.84375 38.929688 82.777344 38.96875 82.777344 38.96875 C 82.777344 38.96875 84.230469 31.644531 84.75 29.046875 C 85.269531 26.453125 82.519531 26.75 81.53125 26.75 "/>
</g>
<g clip-path="url(#clip6)" clip-rule="nonzero">
<path style=" stroke:none;fill-rule:evenodd;fill:rgb(76.850891%,11.805725%,14.44397%);fill-opacity:1;" d="M 115.703125 31.601562 C 114.558594 32.121094 107.339844 32.949219 107.339844 32.949219 L 108.171875 28.789062 C 108.171875 28.789062 113.675781 28.6875 115.234375 28.789062 C 116.792969 28.894531 116.847656 31.082031 115.703125 31.601562 Z M 119.234375 29.9375 C 119.234375 26.613281 114.164062 26.859375 113.46875 26.859375 C 113.261719 26.859375 105.179688 26.851562 105.179688 26.851562 L 102.558594 38.925781 L 105.988281 38.925781 L 106.976562 34.976562 L 111.234375 34.613281 L 114.417969 38.929688 L 117.792969 38.929688 L 114.664062 34.144531 C 114.664062 34.144531 118.976562 33.835938 119.234375 29.9375 "/>
</g>
<g clip-path="url(#clip7)" clip-rule="nonzero">
<path style=" stroke:none;fill-rule:evenodd;fill:rgb(76.850891%,11.805725%,14.44397%);fill-opacity:1;" d="M 119.542969 38.929688 L 122.765625 38.929688 L 125.261719 26.867188 L 122.195312 26.867188 L 119.542969 38.929688 "/>
</g>
<g clip-path="url(#clip8)" clip-rule="nonzero">
<path style=" stroke:none;fill-rule:evenodd;fill:rgb(76.850891%,11.805725%,14.44397%);fill-opacity:1;" d="M 139.144531 38.929688 L 142.367188 38.929688 L 144.757812 26.867188 L 141.691406 26.867188 L 139.144531 38.929688 "/>
</g>
<g clip-path="url(#clip9)" clip-rule="nonzero">
<path style=" stroke:none;fill-rule:evenodd;fill:rgb(76.850891%,11.805725%,14.44397%);fill-opacity:1;" d="M 97.332031 34.992188 C 96.960938 36.753906 96.265625 36.800781 95.941406 36.800781 C 95.617188 36.800781 92.695312 36.753906 91.304688 36.800781 C 89.914062 36.847656 89.773438 36.660156 89.773438 36.476562 C 89.773438 36.292969 91.675781 26.859375 91.675781 26.859375 L 88.441406 26.859375 C 88.441406 26.859375 86.992188 33.835938 86.527344 36.199219 C 86.066406 38.5625 87.917969 38.929688 88.613281 38.929688 C 89.3125 38.929688 95.199219 38.929688 97.191406 38.929688 C 99.1875 38.929688 99.789062 37.679688 100.113281 36.476562 C 100.4375 35.269531 101.96875 26.859375 101.96875 26.859375 L 98.929688 26.855469 C 98.929688 26.855469 97.703125 33.230469 97.332031 34.992188 "/>
</g>
<g clip-path="url(#clip10)" clip-rule="nonzero">
<path style=" stroke:none;fill-rule:evenodd;fill:rgb(76.850891%,11.805725%,14.44397%);fill-opacity:1;" d="M 139.640625 28.113281 C 139.851562 27.191406 139.933594 26.863281 139.933594 26.863281 C 139.933594 26.863281 132.835938 26.863281 132.101562 26.863281 C 131.363281 26.863281 127.796875 26.863281 127.539062 26.863281 C 127.28125 26.863281 126.839844 27.082031 126.691406 27.597656 C 126.546875 28.113281 126.410156 28.792969 126.410156 28.792969 C 126.410156 28.792969 127.292969 28.789062 127.734375 28.789062 C 128.175781 28.789062 131.121094 28.792969 131.339844 28.792969 C 131.191406 29.824219 129.046875 38.925781 129.046875 38.925781 L 132.285156 38.925781 L 134.5625 28.789062 L 138.867188 28.789062 C 138.867188 28.789062 139.457031 28.90625 139.640625 28.113281 "/>
</g>
<g clip-path="url(#clip11)" clip-rule="nonzero">
<path style=" stroke:none;fill-rule:evenodd;fill:rgb(76.850891%,11.805725%,14.44397%);fill-opacity:1;" d="M 158.355469 26.859375 C 158.355469 26.859375 157.140625 33.230469 156.769531 34.992188 C 156.398438 36.753906 155.703125 36.800781 155.378906 36.800781 C 155.054688 36.800781 152.132812 36.753906 150.742188 36.800781 C 149.351562 36.847656 149.214844 36.660156 149.214844 36.476562 C 149.214844 36.292969 151.113281 26.859375 151.113281 26.859375 L 147.859375 26.859375 C 147.859375 26.859375 146.433594 33.835938 145.96875 36.199219 C 145.503906 38.5625 147.359375 38.929688 148.054688 38.929688 C 148.75 38.929688 154.636719 38.929688 156.628906 38.929688 C 158.625 38.929688 159.226562 37.679688 159.554688 36.476562 C 159.878906 35.269531 161.417969 26.859375 161.417969 26.859375 L 158.355469 26.859375 "/>
</g>
<g clip-path="url(#clip12)" clip-rule="nonzero">
<path style=" stroke:none;fill-rule:evenodd;fill:rgb(76.850891%,11.805725%,14.44397%);fill-opacity:1;" d="M 174.28125 28.789062 L 175.015625 26.859375 C 175.015625 26.859375 169.085938 26.859375 168.253906 26.859375 C 167.390625 26.859375 163.320312 26.367188 162.882812 29.886719 C 162.699219 32.226562 164.28125 33.007812 165.089844 33.304688 C 165.898438 33.597656 170.628906 34.125 171.535156 34.273438 C 172.445312 34.421875 172.957031 35.15625 172.957031 35.648438 C 172.957031 36.136719 172.515625 36.921875 171.265625 36.921875 C 170.015625 36.921875 162.859375 36.921875 162.859375 36.921875 L 162.074219 38.859375 C 162.074219 38.859375 171.488281 38.859375 172.050781 38.859375 C 174.183594 38.859375 176 37.339844 176 35.792969 C 176.070312 33.488281 174.007812 32.390625 172.695312 32.246094 C 171.492188 32.113281 167.695312 31.550781 167.105469 31.355469 C 166.519531 31.160156 165.714844 31.023438 165.75 29.933594 C 165.914062 28.972656 166.78125 28.789062 167.148438 28.789062 C 167.515625 28.789062 174.28125 28.789062 174.28125 28.789062 "/>
</g>
</g>
</svg>

<svg xmlns="http://www.w3.org/2000/svg" width="176pt" height="51.96" viewBox="0 0 176 38.97"><defs><clipPath id="a"><path d="M0 26h16v12.969H0Zm0 0"/></clipPath><clipPath id="b"><path d="M16 26h7v12.969h-7Zm0 0"/></clipPath><clipPath id="c"><path d="M23 26h17v12.969H23Zm0 0"/></clipPath><clipPath id="d"><path d="M48 26h21v12.969H48Zm0 0"/></clipPath><clipPath id="e"><path d="M69 26h16v12.969H69Zm0 0"/></clipPath><clipPath id="f"><path d="M102 26h18v12.969h-18Zm0 0"/></clipPath><clipPath id="g"><path d="M119 26h7v12.969h-7Zm0 0"/></clipPath><clipPath id="h"><path d="M139 26h6v12.969h-6Zm0 0"/></clipPath><clipPath id="i"><path d="M86 26h16v12.969H86Zm0 0"/></clipPath><clipPath id="j"><path d="M126 26h14v12.969h-14Zm0 0"/></clipPath><clipPath id="k"><path d="M145 26h17v12.969h-17Zm0 0"/></clipPath><clipPath id="l"><path d="M162 26h14v12.969h-14Zm0 0"/></clipPath></defs><path d="M107.824 16.34c2.406-.328 7.39-.578 10.461 0 3.074.582 8.969 2.328 19.438-2.156 2.242-.829 9.882-2.325 11.875 1.246-.164-.996-.664-3.489-7.723-6.39-2.656-.997-4.984-.833-7.39-.669-2.41.168-12.626.75-19.438-2.82-6.738-3.531-14.05-7.711-24.348-4.254 2.192-.52 8.903 1.418 10.227 2.18 1.297.746 12.625 7.554 16.031 7.554-1.164.992-8.14 2.82-12.625 3.235-4.484.414-18.52 2.656-35.883 2.324 8.196 1.23 25.5 1.828 39.375-.25" style="stroke:none;fill-rule:evenodd;fill:#c41e25;fill-opacity:1"/><path d="M90.7 1.297a1.3 1.3 0 0 0-.321.105c.11-.039.215-.07.32-.105M140.965 7.664c1.91-.812 11.547-5.887 18.465-2.5-2.797-1.547-7.797-5.152-18.172-2.21-5 1.62-10.297 3.753-10.52 4.343 0 0 6.844-.738 10.227.367" style="stroke:none;fill-rule:evenodd;fill:#c41e25;fill-opacity:1"/><g clip-path="url(#a)"><path d="M10.918 36.79s-5.613 0-6.39-.052c-.778-.05-1.665-.312-1.665-1.25 0-.933 1.715-1.504 3.117-1.66 1.403-.156 5.301-.469 5.665-.676Zm1.61-10.08c-.985 0-9.09.15-9.09.15l-.368 2.085s5.977-.261 7.95-.207c1.976.051 1.144 2.024 1.039 2.442-.672.258-7.739.933-8.621 1.09-.883.156-3.586.988-3.43 3.636.152 2.649 3.781 3.024 4.246 3.024l9.527-.008s1.446-7.277 1.969-9.875c.52-2.594-2.234-2.336-3.223-2.336" style="stroke:none;fill-rule:evenodd;fill:#c41e25;fill-opacity:1"/></g><g clip-path="url(#b)"><path d="M16.684 38.93h3.222l2.442-12.063H19.28z" style="stroke:none;fill-rule:evenodd;fill:#c41e25;fill-opacity:1"/></g><g clip-path="url(#c)"><path d="M36.219 31.488c-1.145.524-8.364 1.352-8.364 1.352l.829-4.05s5.507-.102 7.066 0c1.559.105 1.61 2.183.469 2.698m3.531-1.66c0-3.324-5.559-2.969-5.766-2.969h-8.261l-2.657 12.07H26.5l.992-4.062 4.258-.363 3.242 4.426h3.375l-3.187-4.895s4.312-.312 4.57-4.207" style="stroke:none;fill-rule:evenodd;fill:#c41e25;fill-opacity:1"/></g><g clip-path="url(#d)"><path d="M67.254 26.86H51.18l-2.508 12.07h3.238l2.094-10.14h2.93c1.25 0 1.199.573 1.16.94-.035.368-1.824 9.2-1.824 9.2h3.09l2.058-10.14h2.957c.625 0 1.148.241 1.04.757-.11.515-2.063 9.383-2.063 9.383h3.238s2.137-9.016 2.137-10.668c0-1.657-1.473-1.403-1.473-1.403" style="stroke:none;fill-rule:evenodd;fill:#c41e25;fill-opacity:1"/></g><g clip-path="url(#e)"><path d="M79.918 36.79s-5.61 0-6.387-.052c-.781-.05-1.664-.312-1.664-1.25 0-.933 1.715-1.504 3.117-1.66 1.403-.156 5.297-.469 5.66-.676Zm1.613-10.04c-.988 0-9.094.11-9.094.11l-.363 2.085s5.977-.261 7.95-.207c1.972.051 1.144 2.024 1.038 2.442-.675.258-7.738.933-8.624 1.09-.883.156-3.426.98-3.426 3.636 0 2.645 3.894 3.024 4.363 3.024s9.402.039 9.402.039 1.453-7.324 1.973-9.922c.52-2.594-2.23-2.297-3.219-2.297" style="stroke:none;fill-rule:evenodd;fill:#c41e25;fill-opacity:1"/></g><g clip-path="url(#f)"><path d="M115.703 31.602c-1.144.52-8.363 1.347-8.363 1.347l.832-4.16s5.504-.102 7.062 0c1.559.106 1.614 2.293.47 2.813m3.531-1.665c0-3.324-5.07-3.078-5.765-3.078l-8.29-.007-2.62 12.074h3.43l.988-3.95 4.257-.363 3.184 4.317h3.375l-3.129-4.785s4.313-.31 4.57-4.208" style="stroke:none;fill-rule:evenodd;fill:#c41e25;fill-opacity:1"/></g><g clip-path="url(#g)"><path d="M119.543 38.93h3.223l2.496-12.063h-3.067z" style="stroke:none;fill-rule:evenodd;fill:#c41e25;fill-opacity:1"/></g><g clip-path="url(#h)"><path d="M139.145 38.93h3.222l2.39-12.063h-3.066z" style="stroke:none;fill-rule:evenodd;fill:#c41e25;fill-opacity:1"/></g><g clip-path="url(#i)"><path d="M97.332 34.992c-.371 1.762-1.066 1.809-1.39 1.809-.325 0-3.247-.047-4.637 0s-1.532-.14-1.532-.324 1.903-9.618 1.903-9.618H88.44s-1.449 6.977-1.914 9.34c-.46 2.364 1.391 2.73 2.086 2.73h8.578c1.996 0 2.598-1.25 2.922-2.452.325-1.207 1.856-9.618 1.856-9.618l-3.04-.004s-1.226 6.375-1.597 8.137" style="stroke:none;fill-rule:evenodd;fill:#c41e25;fill-opacity:1"/></g><g clip-path="url(#j)"><path d="M139.64 28.113c.212-.922.294-1.25.294-1.25h-12.395c-.258 0-.7.219-.848.735-.144.515-.28 1.195-.28 1.195s.882-.004 1.323-.004l3.606.004c-.149 1.031-2.293 10.133-2.293 10.133h3.238l2.278-10.137h4.304s.59.117.774-.676" style="stroke:none;fill-rule:evenodd;fill:#c41e25;fill-opacity:1"/></g><g clip-path="url(#k)"><path d="M158.355 26.86s-1.214 6.37-1.585 8.132c-.372 1.762-1.067 1.809-1.391 1.809s-3.246-.047-4.637 0-1.527-.14-1.527-.324 1.898-9.618 1.898-9.618h-3.254s-1.425 6.977-1.89 9.34c-.465 2.364 1.39 2.73 2.086 2.73h8.574c1.996 0 2.598-1.25 2.926-2.452.324-1.207 1.863-9.618 1.863-9.618z" style="stroke:none;fill-rule:evenodd;fill:#c41e25;fill-opacity:1"/></g><g clip-path="url(#l)"><path d="m174.281 28.79.735-1.93h-6.762c-.863 0-4.934-.493-5.371 3.027-.184 2.34 1.398 3.12 2.207 3.418.808.293 5.539.82 6.445.968.91.149 1.422.883 1.422 1.375 0 .489-.441 1.274-1.691 1.274h-8.407l-.785 1.937h9.977c2.133 0 3.949-1.52 3.949-3.066.07-2.305-1.992-3.402-3.305-3.547-1.203-.133-5-.695-5.59-.89-.585-.196-1.39-.333-1.355-1.422.164-.961 1.031-1.145 1.398-1.145z" style="stroke:none;fill-rule:evenodd;fill:#c41e25;fill-opacity:1"/></g></svg>
